updated-assets/icons/footer-logo.svg

<svg width="196" height="41" viewBox="0 0 196 41" fill="none" xmlns="http://www.w3.org/2000/svg">
<g filter="url(#filter0_d_412_643)">
<path d="M120.295 32.7275H124.599V13.1921H132.281V9.54992H112.613V13.1921H120.295V32.7275ZM149.925 23.9863C149.925 18.4567 146.15 14.8477 140.985 14.8477C135.72 14.8477 131.846 18.6223 131.846 23.8869C131.846 29.1516 135.687 32.9593 141.614 32.9593C144.66 32.9593 147.144 31.966 148.733 30.0787L146.515 27.5291C145.256 28.8205 143.7 29.4496 141.713 29.4496C138.634 29.4496 136.482 27.794 135.985 25.2114H149.859C149.892 24.814 149.925 24.3174 149.925 23.9863ZM140.985 18.1588C143.7 18.1588 145.654 19.9136 145.985 22.4632H135.952C136.35 19.8805 138.303 18.1588 140.985 18.1588ZM162.013 32.9593C165.456 32.9593 168.205 31.4693 169.562 28.8205L166.383 26.9662C165.324 28.6549 163.735 29.4165 161.98 29.4165C158.933 29.4165 156.616 27.3305 156.616 23.8869C156.616 20.4765 158.933 18.3574 161.98 18.3574C163.735 18.3574 165.324 19.119 166.383 20.8076L169.562 18.9534C168.205 16.2714 165.456 14.8477 162.013 14.8477C156.417 14.8477 152.444 18.5892 152.444 23.8869C152.444 29.1847 156.417 32.9593 162.013 32.9593ZM183.011 14.8477C180.561 14.8477 178.475 15.6423 177.117 17.0992V8.15927H172.978V32.7275H177.117V23.7876C177.117 20.2447 179.104 18.4567 182.051 18.4567C184.699 18.4567 186.256 19.9799 186.256 23.1254V32.7275H190.394V22.5956C190.394 17.2648 187.249 14.8477 183.011 14.8477Z" fill="white"/>
</g>
<g filter="url(#filter1_i_412_643)">
<path d="M77.5815 21.0384V15.1982L66.4087 23.7867L77.5815 32.7186V28.4244L72.9705 24.8173L77.5815 21.0384Z" fill="url(#paint0_linear_412_643)"/>
</g>
<g filter="url(#filter2_i_412_643)">
<path d="M78.9666 26.8767V32.7168L90.1394 24.1284L78.9666 15.1964V19.4906L83.5776 23.0978L78.9666 26.8767Z" fill="url(#paint1_linear_412_643)"/>
</g>
<g filter="url(#filter3_d_412_643)">
<path d="M93.3125 32.7275V15.0463H97.2527V19.9136L96.7891 18.4899C97.3189 17.2979 98.1467 16.3928 99.2725 15.7748C100.42 15.1567 101.844 14.8477 103.544 14.8477V18.7879C103.367 18.7437 103.202 18.7216 103.047 18.7216C102.893 18.6996 102.738 18.6885 102.584 18.6885C101.016 18.6885 99.7691 19.1521 98.842 20.0792C97.9149 20.9842 97.4514 22.3418 97.4514 24.1518V32.7275H93.3125Z" fill="white"/>
</g>
<g filter="url(#filter4_d_412_643)">
<path d="M7.29715 19.1852H18.8197V22.7281H7.29715V19.1852ZM7.62826 29.1185H20.7071V32.7275H3.32385V9.54992H20.2435V13.159H7.62826V29.1185ZM33.0587 32.9593C31.2045 32.9593 29.549 32.573 28.0921 31.8004C26.6573 31.0058 25.5315 29.9242 24.7148 28.5556C23.898 27.187 23.4897 25.6308 23.4897 23.8869C23.4897 22.121 23.898 20.5648 24.7148 19.2183C25.5315 17.8497 26.6573 16.7791 28.0921 16.0065C29.549 15.234 31.2045 14.8477 33.0587 14.8477C34.7805 14.8477 36.2925 15.2008 37.5949 15.9072C38.9193 16.5915 39.9237 17.6069 40.608 18.9534L37.4293 20.8076C36.8996 19.9688 36.2484 19.3507 35.4758 18.9534C34.7253 18.5561 33.9086 18.3574 33.0256 18.3574C32.0102 18.3574 31.0941 18.5782 30.2774 19.0196C29.4607 19.4611 28.8205 20.1013 28.357 20.9401C27.8934 21.7568 27.6616 22.7391 27.6616 23.8869C27.6616 25.0348 27.8934 26.0281 28.357 26.8669C28.8205 27.6836 29.4607 28.3128 30.2774 28.7542C31.0941 29.1957 32.0102 29.4165 33.0256 29.4165C33.9086 29.4165 34.7253 29.2178 35.4758 28.8205C36.2484 28.4231 36.8996 27.8051 37.4293 26.9662L40.608 28.8205C39.9237 30.1449 38.9193 31.1713 37.5949 31.8998C36.2925 32.6061 34.7805 32.9593 33.0587 32.9593ZM54.0567 14.8477C55.4694 14.8477 56.7276 15.1236 57.8313 15.6754C58.9571 16.2273 59.8401 17.0771 60.4802 18.225C61.1204 19.3507 61.4404 20.8076 61.4404 22.5956V32.7275H57.3016V23.1254C57.3016 21.5581 56.9263 20.3882 56.1758 19.6156C55.4474 18.843 54.4209 18.4567 53.0965 18.4567C52.1252 18.4567 51.2643 18.6554 50.5138 19.0527C49.7633 19.4501 49.1784 20.0461 48.759 20.8407C48.3616 21.6133 48.163 22.5956 48.163 23.7876V32.7275H44.0241V8.15927H48.163V19.8143L47.269 18.3574C47.887 17.2316 48.781 16.3708 49.9509 15.7748C51.1429 15.1567 52.5115 14.8477 54.0567 14.8477Z" fill="white"/>
</g>
<defs>
<filter id="filter0_d_412_643" x="110.67" y="7.51143" width="81.668" height="28.6863" filterUnits="userSpaceOnUse" color-interpolation-filters="sRGB">
<feFlood flood-opacity="0" result="BackgroundImageFix"/>
<feColorMatrix in="SourceAlpha" type="matrix" values="0 0 0 0 0 0 0 0 0 0 0 0 0 0 0 0 0 0 127 0" result="hardAlpha"/>
<feOffset dy="1.2955"/>
<feGaussianBlur stdDeviation="0.971622"/>
<feComposite in2="hardAlpha" operator="out"/>
<feColorMatrix type="matrix" values="0 0 0 0 0.160784 0 0 0 0 0.219608 0 0 0 0 0.564706 0 0 0 0.12 0"/>
<feBlend mode="normal" in2="BackgroundImageFix" result="effect1_dropShadow_412_643"/>
<feBlend mode="normal" in="SourceGraphic" in2="effect1_dropShadow_412_643" result="shape"/>
</filter>
<filter id="filter1_i_412_643" x="66.4087" y="15.1982" width="11.1729" height="18.8984" filterUnits="userSpaceOnUse" color-interpolation-filters="sRGB">
<feFlood flood-opacity="0" result="BackgroundImageFix"/>
<feBlend mode="normal" in="SourceGraphic" in2="BackgroundImageFix" result="shape"/>
<feColorMatrix in="SourceAlpha" type="matrix" values="0 0 0 0 0 0 0 0 0 0 0 0 0 0 0 0 0 0 127 0" result="hardAlpha"/>
<feOffset dy="1.37786"/>
<feGaussianBlur stdDeviation="0.68893"/>
<feComposite in2="hardAlpha" operator="arithmetic" k2="-1" k3="1"/>
<feColorMatrix type="matrix" values="0 0 0 0 0 0 0 0 0 0 0 0 0 0 0 0 0 0 0.1 0"/>
<feBlend mode="difference" in2="shape" result="effect1_innerShadow_412_643"/>
</filter>
<filter id="filter2_i_412_643" x="78.9666" y="15.1963" width="11.1729" height="18.8984" filterUnits="userSpaceOnUse" color-interpolation-filters="sRGB">
<feFlood flood-opacity="0" result="BackgroundImageFix"/>
<feBlend mode="normal" in="SourceGraphic" in2="BackgroundImageFix" result="shape"/>
<feColorMatrix in="SourceAlpha" type="matrix" values="0 0 0 0 0 0 0 0 0 0 0 0 0 0 0 0 0 0 127 0" result="hardAlpha"/>
<feOffset dy="1.37786"/>
<feGaussianBlur stdDeviation="0.68893"/>
<feComposite in2="hardAlpha" operator="arithmetic" k2="-1" k3="1"/>
<feColorMatrix type="matrix" values="0 0 0 0 0 0 0 0 0 0 0 0 0 0 0 0 0 0 0.1 0"/>
<feBlend mode="difference" in2="shape" result="effect1_innerShadow_412_643"/>
</filter>
<filter id="filter3_d_412_643" x="91.3693" y="14.1999" width="14.1177" height="21.7664" filterUnits="userSpaceOnUse" color-interpolation-filters="sRGB">
<feFlood flood-opacity="0" result="BackgroundImageFix"/>
<feColorMatrix in="SourceAlpha" type="matrix" values="0 0 0 0 0 0 0 0 0 0 0 0 0 0 0 0 0 0 127 0" result="hardAlpha"/>
<feOffset dy="1.2955"/>
<feGaussianBlur stdDeviation="0.971622"/>
<feComposite in2="hardAlpha" operator="out"/>
<feColorMatrix type="matrix" values="0 0 0 0 0.160784 0 0 0 0 0.219608 0 0 0 0 0.564706 0 0 0 0.12 0"/>
<feBlend mode="normal" in2="BackgroundImageFix" result="effect1_dropShadow_412_643"/>
<feBlend mode="normal" in="SourceGraphic" in2="effect1_dropShadow_412_643" result="shape"/>
</filter>
<filter id="filter4_d_412_643" x="1.38049" y="7.51143" width="62.0032" height="28.6863" filterUnits="userSpaceOnUse" color-interpolation-filters="sRGB">
<feFlood flood-opacity="0" result="BackgroundImageFix"/>
<feColorMatrix in="SourceAlpha" type="matrix" values="0 0 0 0 0 0 0 0 0 0 0 0 0 0 0 0 0 0 127 0" result="hardAlpha"/>
<feOffset dy="1.2955"/>
<feGaussianBlur stdDeviation="0.971622"/>
<feComposite in2="hardAlpha" operator="out"/>
<feColorMatrix type="matrix" values="0 0 0 0 0.160784 0 0 0 0 0.219608 0 0 0 0 0.564706 0 0 0 0.12 0"/>
<feBlend mode="normal" in2="BackgroundImageFix" result="effect1_dropShadow_412_643"/>
<feBlend mode="normal" in="SourceGraphic" in2="effect1_dropShadow_412_643" result="shape"/>
</filter>
<linearGradient id="paint0_linear_412_643" x1="66.4087" y1="23.9584" x2="77.5815" y2="23.9584" gradientUnits="userSpaceOnUse">
<stop stop-color="#F83600"/>
<stop offset="1" stop-color="#F9D423"/>
</linearGradient>
<linearGradient id="paint1_linear_412_643" x1="90.1394" y1="23.9566" x2="78.9666" y2="23.9566" gradientUnits="userSpaceOnUse">
<stop stop-color="#F83600"/>
<stop offset="1" stop-color="#F9D423"/>
</linearGradient>
</defs>
</svg>

<svg width="196" height="41" fill="none" xmlns="http://www.w3.org/2000/svg"><g filter="url(#a)"><path d="M120.295 32.727h4.304V13.192h7.682V9.55h-19.668v3.642h7.682v19.535Zm29.63-8.74c0-5.53-3.775-9.14-8.94-9.14-5.265 0-9.139 3.775-9.139 9.04 0 5.265 3.841 9.072 9.768 9.072 3.046 0 5.53-.993 7.119-2.88l-2.218-2.55c-1.259 1.291-2.815 1.92-4.802 1.92-3.079 0-5.231-1.655-5.728-4.238h13.874c.033-.397.066-.894.066-1.225Zm-8.94-5.828c2.715 0 4.669 1.755 5 4.304h-10.033c.398-2.582 2.351-4.304 5.033-4.304Zm21.028 14.8c3.443 0 6.192-1.49 7.549-4.139l-3.179-1.854c-1.059 1.689-2.648 2.45-4.403 2.45-3.047 0-5.364-2.085-5.364-5.53 0-3.41 2.317-5.529 5.364-5.529 1.755 0 3.344.762 4.403 2.45l3.179-1.854c-1.357-2.682-4.106-4.105-7.549-4.105-5.596 0-9.569 3.741-9.569 9.039s3.973 9.072 9.569 9.072Zm20.998-18.111c-2.45 0-4.536.794-5.894 2.251V8.16h-4.139v24.569h4.139v-8.94c0-3.543 1.987-5.331 4.934-5.331 2.648 0 4.205 1.523 4.205 4.668v9.602h4.138V22.596c0-5.331-3.145-7.748-7.383-7.748Z" fill="#fff"/></g><g filter="url(#b)"><path d="M77.582 21.038v-5.84l-11.173 8.589 11.172 8.932v-4.295l-4.61-3.607 4.61-3.779Z" fill="url(#c)"/></g><g filter="url(#d)"><path d="M78.967 26.877v5.84l11.172-8.589-11.172-8.932v4.295l4.61 3.607-4.61 3.779Z" fill="url(#e)"/></g><g filter="url(#f)"><path d="M93.313 32.727v-17.68h3.94v4.867l-.464-1.424c.53-1.192 1.358-2.097 2.483-2.715 1.148-.618 2.572-.927 4.272-.927v3.94a2.053 2.053 0 0 0-.497-.066 3.277 3.277 0 0 0-.463-.034c-1.568 0-2.815.464-3.742 1.391-.927.905-1.39 2.263-1.39 4.073v8.575h-4.14Z" fill="#fff"/></g><g filter="url(#g)"><path d="M7.297 19.185H18.82v3.543H7.297v-3.543Zm.331 9.934h13.08v3.608H3.323V9.55h16.92v3.609H7.628v15.96Zm25.43 3.84c-1.854 0-3.509-.386-4.966-1.159-1.435-.794-2.56-1.876-3.377-3.244-.817-1.369-1.225-2.925-1.225-4.67 0-1.765.408-3.321 1.225-4.668a8.608 8.608 0 0 1 3.377-3.212c1.457-.772 3.113-1.158 4.967-1.158 1.722 0 3.233.353 4.536 1.06a6.817 6.817 0 0 1 3.013 3.045l-3.179 1.855c-.53-.84-1.18-1.457-1.953-1.855a5.156 5.156 0 0 0-2.45-.596c-1.016 0-1.932.221-2.749.663a4.732 4.732 0 0 0-1.92 1.92c-.464.817-.695 1.8-.695 2.947 0 1.148.231 2.141.695 2.98a4.787 4.787 0 0 0 1.92 1.887c.817.442 1.733.662 2.749.662.883 0 1.7-.198 2.45-.596.772-.397 1.424-1.015 1.953-1.854l3.179 1.854a7.24 7.24 0 0 1-3.013 3.08c-1.303.706-2.814 1.06-4.536 1.06Zm20.999-18.111c1.412 0 2.67.276 3.774.827 1.126.552 2.01 1.402 2.65 2.55.64 1.126.96 2.583.96 4.37v10.133H57.3v-9.603c0-1.567-.375-2.737-1.125-3.51-.729-.772-1.755-1.158-3.08-1.158-.97 0-1.832.198-2.582.596-.75.397-1.336.993-1.755 1.788-.397.772-.596 1.755-.596 2.947v8.94h-4.139V8.159h4.139v11.655l-.894-1.457c.618-1.125 1.512-1.986 2.682-2.582 1.192-.618 2.56-.927 4.106-.927Z" fill="#fff"/></g><defs><filter id="a" x="110.67" y="7.511" width="81.668" height="28.686" filterUnits="userSpaceOnUse" color-interpolation-filters="sRGB"><feFlood flood-opacity="0" result="BackgroundImageFix"/><feColorMatrix in="SourceAlpha" values="0 0 0 0 0 0 0 0 0 0 0 0 0 0 0 0 0 0 127 0" result="hardAlpha"/><feOffset dy="1.296"/><feGaussianBlur stdDeviation=".972"/><feComposite in2="hardAlpha" operator="out"/><feColorMatrix values="0 0 0 0 0.160784 0 0 0 0 0.219608 0 0 0 0 0.564706 0 0 0 0.12 0"/><feBlend in2="BackgroundImageFix" result="effect1_dropShadow_412_643"/><feBlend in="SourceGraphic" in2="effect1_dropShadow_412_643" result="shape"/></filter><filter id="b" x="66.409" y="15.198" width="11.173" height="18.898" filterUnits="userSpaceOnUse" color-interpolation-filters="sRGB"><feFlood flood-opacity="0" result="BackgroundImageFix"/><feBlend in="SourceGraphic" in2="BackgroundImageFix" result="shape"/><feColorMatrix in="SourceAlpha" values="0 0 0 0 0 0 0 0 0 0 0 0 0 0 0 0 0 0 127 0" result="hardAlpha"/><feOffset dy="1.378"/><feGaussianBlur stdDeviation=".689"/><feComposite in2="hardAlpha" operator="arithmetic" k2="-1" k3="1"/><feColorMatrix values="0 0 0 0 0 0 0 0 0 0 0 0 0 0 0 0 0 0 0.1 0"/><feBlend mode="difference" in2="shape" result="effect1_innerShadow_412_643"/></filter><filter id="d" x="78.967" y="15.196" width="11.173" height="18.898" filterUnits="userSpaceOnUse" color-interpolation-filters="sRGB"><feFlood flood-opacity="0" result="BackgroundImageFix"/><feBlend in="SourceGraphic" in2="BackgroundImageFix" result="shape"/><feColorMatrix in="SourceAlpha" values="0 0 0 0 0 0 0 0 0 0 0 0 0 0 0 0 0 0 127 0" result="hardAlpha"/><feOffset dy="1.378"/><feGaussianBlur stdDeviation=".689"/><feComposite in2="hardAlpha" operator="arithmetic" k2="-1" k3="1"/><feColorMatrix values="0 0 0 0 0 0 0 0 0 0 0 0 0 0 0 0 0 0 0.1 0"/><feBlend mode="difference" in2="shape" result="effect1_innerShadow_412_643"/></filter><filter id="f" x="91.369" y="14.2" width="14.118" height="21.766" filterUnits="userSpaceOnUse" color-interpolation-filters="sRGB"><feFlood flood-opacity="0" result="BackgroundImageFix"/><feColorMatrix in="SourceAlpha" values="0 0 0 0 0 0 0 0 0 0 0 0 0 0 0 0 0 0 127 0" result="hardAlpha"/><feOffset dy="1.296"/><feGaussianBlur stdDeviation=".972"/><feComposite in2="hardAlpha" operator="out"/><feColorMatrix values="0 0 0 0 0.160784 0 0 0 0 0.219608 0 0 0 0 0.564706 0 0 0 0.12 0"/><feBlend in2="BackgroundImageFix" result="effect1_dropShadow_412_643"/><feBlend in="SourceGraphic" in2="effect1_dropShadow_412_643" result="shape"/></filter><filter id="g" x="1.38" y="7.511" width="62.003" height="28.686" filterUnits="userSpaceOnUse" color-interpolation-filters="sRGB"><feFlood flood-opacity="0" result="BackgroundImageFix"/><feColorMatrix in="SourceAlpha" values="0 0 0 0 0 0 0 0 0 0 0 0 0 0 0 0 0 0 127 0" result="hardAlpha"/><feOffset dy="1.296"/><feGaussianBlur stdDeviation=".972"/><feComposite in2="hardAlpha" operator="out"/><feColorMatrix values="0 0 0 0 0.160784 0 0 0 0 0.219608 0 0 0 0 0.564706 0 0 0 0.12 0"/><feBlend in2="BackgroundImageFix" result="effect1_dropShadow_412_643"/><feBlend in="SourceGraphic" in2="effect1_dropShadow_412_643" result="shape"/></filter><linearGradient id="c" x1="66.409" y1="23.958" x2="77.582" y2="23.958" gradientUnits="userSpaceOnUse"><stop stop-color="#F83600"/><stop offset="1" stop-color="#F9D423"/></linearGradient><linearGradient id="e" x1="90.139" y1="23.957" x2="78.967" y2="23.957" gradientUnits="userSpaceOnUse"><stop stop-color="#F83600"/><stop offset="1" stop-color="#F9D423"/></linearGradient></defs></svg>
